X:1
T:Title
%%score { ( 1 4 ) | ( 2 3 ) }
L:1/8
M:4/4
K:Ab
V:1 treble nm="Grand Piano"
V:4 treble 
V:2 bass 
V:3 bass 
V:1
 z4 z2[Q:1/4=112] E2 | A2 A2 B2 c2 | A4 E2 E2 | F2 F2 B2 F2 |[M:3/4] B4 A2 |[M:1/4] B2 | %6
[M:4/4] c2 d2 B2 [Gc]2 | [GB]4 [FA]2 z C | [EF]2 [CEA]2 [B,=DG]2 [A,DF]2 |[M:3/4] [G,E]6 | %10
[M:1/4] E2 |[M:4/4] [DGB]2 [C_G=A]2 [D=GB]2 [EGc]2 | [CEA]4 [CE]2 [CE]2 | %13
 [Gd]2 [_Gc]2 [=Gd]2 [Ee]2 |[M:3/4] [Ec]6 |[M:1/4] [Ec]2 |[M:4/4] [Gc]2 [GB]2 [FA]2 [Fc]2 | %17
 B2 z2 [B,EG]2 [B,EB]2 | [CEF]2 .[A,EG]2 [B,=DG]2 [A,DF]2 |[M:3/4] [G,E]6 |[M:1/4] E2 | %21
[M:4/4] B2 =A2 B2 c2 | A4[K:bass] z4[K:treble] | d2 c2 d2 d2 |[M:3/4] [Ec]6 |[M:1/4] c2 | %26
[M:4/4] e2 e2 =d2 e2 | e2- [_Ge]2 .[Fe]2 [Cc]B | A2 c2 B3 [CA] |[M:3/4] [CA]6 |] %30
V:2
 z4 z2 [A,C]2 | [A,CE]2 [A,CE]2 [A,CE]2 [A,CE]2 | [A,CE]4 [A,C]2 [A,C]2 | %3
 [A,B,=D]2 [A,B,D]2 [A,B,D]2 [A,B,D]2 |[M:3/4] [DE]6 |[M:1/4] [G,DE]2 | %6
[M:4/4] [A,CE]2 [F,A,D]2 [G,E]2 [=E,C]2 | [F,D]4 [F,C]2 [G,B,]A, | B,2 B,,2 B,,2 B,,2 | %9
[M:3/4] E,6 |[M:1/4] E,2 |[M:4/4] E,2 E,2 E,2 E,2 | A,4 A,2 A,2 | %13
 [E,B,]2 [E,=A,]2 [E,B,]2 [E,G,]2 |[M:3/4] [A,,A,]6 |[M:1/4] [A,C]2 | %16
[M:4/4] [=E,C]2 [E,C]2 [F,C]2 [F,A,]2 | z2 A2 E,2 G,,2 | A,,2 z A B,,2 B,,2 |[M:3/4] E,6 | %20
[M:1/4] E,2 |[M:4/4] [G,DE]2 [E,CE]2 [G,DE]2 [E,E]2 | [CE]4 z4 | %23
 [G,B,E]2 [_G,=A,E]2 [=G,B,E]2 [E,G,E]2 |[M:3/4] [A,,A,]6 |[M:1/4][K:treble] [A,CA]2 | %26
[M:4/4] [A,CA]2 [A,CA]2 [A,_CF]2 [A,=CE]2 | [D,=A,C]4 z[K:treble] d[K:bass] z D | %28
 [E,CE]2 [E,A,E]2 [E,G,D]3 [A,,A,] |[M:3/4] [A,,A,]6 |] %30
V:3
 x8 | x8 | x8 | x8 |[M:3/4] G,4 F,2 |[M:1/4] x2 |[M:4/4] x8 | x8 | x8 |[M:3/4] x6 |[M:1/4] x2 | %11
[M:4/4] x8 | x8 | x8 |[M:3/4] x6 |[M:1/4] x2 |[M:4/4] x8 | =D,4 z4 | z2 F,,2 z4 |[M:3/4] x6 | %20
[M:1/4] x2 |[M:4/4] x8 | A,2 z2 [A,C]2 [E,C]2 | x8 |[M:3/4] x6 |[M:1/4][K:treble] x2 |[M:4/4] x8 | %27
 z4 [D,B,]2[K:treble][K:bass] D,2 | x8 |[M:3/4] x6 |] %30
V:4
 x8 | x8 | x8 | x8 |[M:3/4] x6 |[M:1/4] x2 |[M:4/4] x8 | z4 z2 [EG]2 | x8 |[M:3/4] x6 |[M:1/4] x2 | %11
[M:4/4] x8 | x8 | x8 |[M:3/4] x6 |[M:1/4] x2 |[M:4/4] x8 | [B,F]4 z4 | x8 |[M:3/4] x6 |[M:1/4] x2 | %21
[M:4/4] x8 | z2[K:bass] E,2 E2[K:treble] E2 | x8 |[M:3/4] x6 |[M:1/4] x2 |[M:4/4] x8 | %27
 F2 z2 z2 F2 | x8 |[M:3/4] x6 |] %30

